X:114
T:Smiths Hornpipe TS.114
T:Lancaster Hornpipe,aka TS.114
T:Swan’s Hornpipe,aka TS.114
T:Fox In The Dumps,aka TS.114
T:Exiseman’s Hp,aka TS.114
M:C|
L:1/8
Q:1/2=90
S:Thomas Sands’ MS,1810,Lincolnshire
R:.hornpipe
O:England;Lincolnshire
Z:vmp.Ruairidh Greig, 2011
K:F
cB|Acfff2 (a/g/f)|egbb b2ag|agbg afef|geccc2(d/c/B)|
Acfff2 a/g/f|egBBB2d/c/B|AFBG AGFE|F2F2F2:|
|:cB|Acfc acfc|(d/c/B) fdB2 “triplet in ms”d/c/B|Bdge begd|ecgec2(d/c/B)|
Acff fagf|egBBB2dB|AFBG AGFE|F2F2F2:|]

